X:211
T: Abendlied
N: A0254C
O: Europa, Mitteleuropa, Deutschland
N: 1653
R: Romanze, Ballade, Lied
M: 4/2
L: 1/2
K: F
A | FGAc | B2A
A | ccGA | F2E
E | FGAA | G2z
A | FGAc | B2A
A | ccGA | F2E
C | FGAB | AGF

